X:417
T: SEID NUR LUSTIG UND FROEHLICH
N: E1609
O: Europa, Mitteleuropa, Deutschland, Hessen, Frankfurt a.M.
R: Staende -, Handwerker -, Gesellen - Lied, Wanderschaft
M: 3/4
L: 1/8
K: G
 | GBd2dc | B2c2d2 |
d2edcB | A2F2D2 |
dedcB2 | dedcB2 |
A2A2A2 | B2d4 |
c2B2A2 | G4z2

@@@ Tune index: 5101
